X:25
T:The Trip to Cullenstown
S:Altan - The Blue Idol Track 6
M:4/4
F:http://blackrosetheband.googlepages.com/ABCTUNES.ABC May 2009
R:reel
K:G
G2BG E2AG | FDFA dcBA | GABG EcAG | FDEF G3(3DEF |
|:G2BG EcAG | FDFA dcBA | GABG EcAG | FDEF G3 A|
BddB cd(3efg | dedc BGGA | BddB cd(3efg | dcBA G3A |
BddB cd(3efg | dedc BGdc | Bdfa gedc | BGAF GFED |
FA(3AAA ABAG | FDFA dcBA | GABG EcAG | FDEF G3(3DEF :|
